icons/desktop/12/svg/email-shield-12.svg

<svg width="12" height="12" viewBox="0 0 12 12" fill="none" xmlns="http://www.w3.org/2000/svg">
<path fill-rule="evenodd" clip-rule="evenodd" d="M9 4.99756C9.259 4.99756 9.51623 5.07498 9.74023 5.22998C9.91721 5.35197 10.1136 5.47374 10.3262 5.59424C10.3603 5.61351 10.3937 5.63468 10.4287 5.65381L10.8232 5.85596C10.8711 5.87883 10.9198 5.89903 10.9668 5.92041C11.0462 5.95643 11.1234 5.99246 11.2002 6.02393C11.2477 6.04373 11.2929 6.0674 11.3369 6.09229C11.3563 6.10319 11.3759 6.11371 11.3945 6.12549C11.439 6.1538 11.4812 6.18508 11.5215 6.21826C11.703 6.3665 11.8377 6.55947 11.917 6.7749C11.9242 6.7942 11.9302 6.81386 11.9365 6.8335C11.9407 6.84677 11.9445 6.86012 11.9482 6.87354C11.9528 6.88949 11.958 6.90525 11.9619 6.92139C11.9662 6.93914 11.9691 6.95715 11.9727 6.9751C12.005 7.13583 12.009 7.30403 11.9775 7.47217L11.7969 8.44287C11.7059 8.93387 11.5406 9.36419 11.3066 9.72119C10.8807 10.3681 10.296 10.9312 9.66113 11.3071C9.45813 11.4271 9.22898 11.4878 9.00098 11.4878V11.4849C8.76852 11.4849 8.53666 11.4231 8.33008 11.3003C7.7326 10.9448 7.18315 10.4281 6.7627 9.82275C6.54221 9.50548 6.3354 9.00014 6.23633 8.60108L6.20117 8.43701L6.02051 7.45264C5.90807 6.84156 6.23381 6.23837 6.80664 5.99854C7.00135 5.91724 7.2063 5.82348 7.41406 5.71631L7.64258 5.59424C7.86533 5.47116 8.07025 5.34516 8.25586 5.22119C8.48332 5.06928 8.74287 4.99672 9.00098 4.99951L9 4.99756ZM8.89844 6.01123L8.81152 6.05225C8.53496 6.23697 8.22039 6.42656 7.87109 6.60596L7.87012 6.60498C7.63653 6.72542 7.4091 6.83091 7.19238 6.92139C7.05391 6.97966 6.97679 7.1226 7.00391 7.271L7.18457 8.25635C7.23856 8.55121 7.42437 9.02294 7.58398 9.25244C7.92735 9.74679 8.37358 10.1624 8.8418 10.4409C8.89329 10.4715 8.94784 10.4858 9.00098 10.4858V6.00049C8.96626 5.99908 8.93161 6.00137 8.89844 6.01123Z" fill="black"/>
<path fill-rule="evenodd" clip-rule="evenodd" d="M1.94141 1.10693C3.61427 0.96797 5.33426 0.964994 7.03711 1.10498C8.13903 1.19604 9.00094 2.1281 9.00098 3.22803V4.00244C8.99746 4.00244 8.99002 4.00086 8.98828 4.00049C8.54735 4.00049 8.12193 4.13077 7.75098 4.3667V3.22705C7.75098 3.22379 7.75004 3.22054 7.75 3.21729L6.16211 4.80615C5.70111 5.26615 5.08859 5.49951 4.47559 5.49951C3.92372 5.49942 3.37163 5.31113 2.92773 4.92822C2.59231 4.63956 1.90251 3.9768 1.25098 3.34424V5.77197C1.25098 6.22597 1.60938 6.61193 2.06738 6.64893C3.06412 6.73189 4.06483 6.74604 5.05957 6.72705C4.99558 7.01904 4.98209 7.32632 5.03809 7.6333L5.10156 7.9751C4.9007 7.97912 4.70184 8.00049 4.50098 8.00049C3.66198 8.00049 2.80884 7.965 1.96484 7.896C0.862911 7.80493 0.000976562 6.8729 0.000976562 5.77295V3.22803C0.00101181 2.11106 0.83543 1.19893 1.94141 1.10693ZM4.50098 2.24951C3.68098 2.24951 2.85492 2.28405 2.04492 2.35205C2.03806 2.35261 2.03122 2.35329 2.02441 2.354C2.69714 3.00835 3.42004 3.70262 3.74316 3.98096C4.18916 4.36294 4.86137 4.33838 5.27637 3.92139L6.85254 2.34424C6.06942 2.28167 5.2787 2.24951 4.50098 2.24951Z" fill="black"/>
</svg>

<!-- This Source Code Form is subject to the terms of the Mozilla Public
   - License, v. 2.0. If a copy of the MPL was not distributed with this
   - file, You can obtain one at http://mozilla.org/MPL/2.0/. -->
<svg xmlns="http://www.w3.org/2000/svg" width="12" height="12" fill="context-fill" fill-opacity="context-fill-opacity" viewBox="0 0 12 12">
    <path fill-rule="evenodd" d="M9 4.998c.259 0 .516.077.74.232q.267.183.586.364l.103.06.394.202q.073.034.144.064.119.055.233.104.072.03.137.068l.058.033q.066.043.127.093c.181.149.316.341.395.557l.02.058.011.04.014.048.01.054c.033.16.037.329.005.497l-.18.97a3.5 3.5 0 0 1-.49 1.28 5.2 5.2 0 0 1-1.646 1.585 1.3 1.3 0 0 1-.66.18v-.002c-.232 0-.464-.062-.67-.185a5.2 5.2 0 0 1-1.568-1.477C6.543 9.505 6.335 9 6.236 8.6l-.035-.164-.18-.984a1.315 1.315 0 0 1 .786-1.454c.194-.082.4-.176.607-.283l.229-.122q.333-.186.613-.373C8.483 5.07 8.743 4.997 9 5zM8.898 6.01l-.086.041a10 10 0 0 1-.94.554l-.002-.001q-.35.18-.678.316a.314.314 0 0 0-.188.35l.18.985c.055.295.24.767.4.996.343.495.79.91 1.258 1.189a.3.3 0 0 0 .159.045V6a.3.3 0 0 0-.103.011" clip-rule="evenodd" />
    <path fill-rule="evenodd" d="M1.941 1.107a31 31 0 0 1 5.096-.002 2.146 2.146 0 0 1 1.964 2.123v.774L8.988 4c-.44 0-.866.13-1.237.367v-1.14l-.001-.01-1.588 1.59a2.38 2.38 0 0 1-1.686.693 2.36 2.36 0 0 1-1.548-.572c-.336-.288-1.025-.951-1.677-1.584v2.428c0 .454.358.84.816.877.997.083 1.998.097 2.993.078a2.3 2.3 0 0 0-.022.906l.064.342C4.9 7.98 4.702 8 4.5 8c-.839 0-1.692-.035-2.536-.104A2.146 2.146 0 0 1 0 5.773V3.228a2.11 2.11 0 0 1 1.94-2.121m2.56 1.143a30 30 0 0 0-2.477.104c.673.654 1.396 1.349 1.72 1.627a1.13 1.13 0 0 0 1.532-.06l1.577-1.577A30 30 0 0 0 4.5 2.25" clip-rule="evenodd" />
</svg>
